src/assets/icons/google-logo.svg

<svg viewBox="0 0 19 18" fill="none" xmlns="http://www.w3.org/2000/svg">
<path d="M6.68397 0.491977C4.44744 1.24181 2.54171 2.88175 1.48023 4.95708C1.10994 5.67305 0.843335 6.43255 0.68041 7.22108C0.275565 9.17548 0.556981 11.2605 1.47529 13.0407C2.07268 14.2017 2.93174 15.237 3.96854 16.0449C4.95103 16.8092 6.09151 17.38 7.30605 17.6945C8.83656 18.096 10.4658 18.0863 12.0062 17.7429C13.3985 17.4284 14.7167 16.7754 15.7683 15.8272C16.8792 14.8258 17.674 13.51 18.0937 12.0925C18.5528 10.5494 18.6121 8.89973 18.3257 7.313C15.4474 7.313 12.5641 7.313 9.68575 7.313C9.68575 8.4837 9.68575 9.6544 9.68575 10.8251C11.3545 10.8251 13.0233 10.8251 14.692 10.8251C14.4995 11.9474 13.8181 12.973 12.8554 13.6067C12.2481 14.0082 11.552 14.2646 10.8312 14.3904C10.1103 14.5114 9.3599 14.5259 8.63907 14.3856C7.90344 14.2404 7.2073 13.9405 6.5951 13.5196C5.61755 12.8472 4.87204 11.8652 4.49188 10.7574C4.10185 9.63021 4.09691 8.37727 4.49188 7.25495C4.76836 6.46158 5.22258 5.7311 5.82491 5.13124C6.56548 4.38625 7.52822 3.85411 8.56995 3.63642C9.45864 3.45259 10.3967 3.48645 11.2656 3.74285C12.0062 3.96054 12.6875 4.36206 13.2454 4.88452C13.8083 4.33303 14.3711 3.78155 14.9339 3.23006C15.2302 2.93497 15.5412 2.64955 15.8275 2.34478C14.9734 1.57076 13.9662 0.946712 12.8702 0.550028C10.8953 -0.165937 8.67363 -0.18045 6.68397 0.491977Z" fill="white"/>
<path d="M6.68421 0.492537C8.66894 -0.17989 10.8956 -0.165377 12.8704 0.54575C13.9665 0.942434 14.9687 1.56165 15.8278 2.3405C15.5414 2.64527 15.2304 2.93069 14.9342 3.22578C14.3713 3.77727 13.8085 4.32876 13.2457 4.88024C12.6878 4.35778 12.0064 3.9611 11.2659 3.73857C10.3969 3.48217 9.45888 3.44347 8.5702 3.63214C7.5334 3.84983 6.57066 4.38197 5.82515 5.12696C5.22282 5.72198 4.7686 6.4573 4.49212 7.25067C3.48988 6.48633 2.48764 5.72682 1.48047 4.96248C2.54195 2.88231 4.44769 1.24237 6.68421 0.492537Z" fill="#EA4335"/>
<path d="M0.684055 7.21712C0.846981 6.43343 1.11359 5.66909 1.48387 4.95312C2.48611 5.71747 3.48835 6.47697 4.49552 7.24131C4.10055 8.36847 4.10055 9.62141 4.49552 10.7437C3.49329 11.5081 2.49105 12.2724 1.48881 13.0319C0.560627 11.2565 0.27921 9.17152 0.684055 7.21712Z" fill="#FBBC05"/>
<path d="M9.68462 7.30469C12.563 7.30469 15.4463 7.30469 18.3246 7.30469C18.611 8.88658 18.5468 10.5362 18.0926 12.0842C17.6729 13.5017 16.878 14.8175 15.7672 15.8189C14.7946 15.0787 13.8219 14.3386 12.8493 13.5984C13.8121 12.9647 14.4934 11.9391 14.6859 10.8168C13.0172 10.8168 11.3484 10.8168 9.67969 10.8168C9.68462 9.64609 9.68462 8.47539 9.68462 7.30469Z" fill="#4285F4"/>
<path d="M1.48047 13.0343C2.48271 12.2748 3.48495 11.5104 4.48719 10.7461C4.87228 11.8539 5.61285 12.8359 6.59041 13.5084C7.20261 13.9292 7.90368 14.2292 8.63438 14.3743C9.3552 14.5194 10.1007 14.5001 10.8265 14.3791C11.5473 14.2534 12.2434 13.997 12.8507 13.5954C13.8233 14.3356 14.7959 15.0758 15.7685 15.8159C14.7169 16.7689 13.3987 17.4172 12.0064 17.7316C10.4661 18.0751 8.8368 18.0847 7.30629 17.6832C6.09176 17.3688 4.95128 16.8028 3.96879 16.0336C2.93692 15.2306 2.07786 14.1953 1.48047 13.0343Z" fill="#34A853"/>
</svg>

<svg xmlns="http://www.w3.org/2000/svg" fill="none" viewBox="0 0 19 18"><path fill="#fff" d="M6.684.492c-2.237.75-4.142 2.39-5.204 4.465a8.789 8.789 0 0 0-.8 2.264 8.867 8.867 0 0 0 .795 5.82 9.12 9.12 0 0 0 2.494 3.004 9.224 9.224 0 0 0 3.337 1.65c1.53.401 3.16.391 4.7.048 1.393-.315 2.71-.968 3.762-1.916 1.111-1.001 1.906-2.317 2.326-3.735.459-1.543.518-3.192.232-4.779h-8.64v3.512h5.006a4.232 4.232 0 0 1-1.837 2.782 5.325 5.325 0 0 1-2.024.783 6.18 6.18 0 0 1-2.192-.004 5.496 5.496 0 0 1-2.044-.866 5.575 5.575 0 0 1-2.103-2.763 5.356 5.356 0 0 1 0-3.502 5.603 5.603 0 0 1 1.333-2.124A5.478 5.478 0 0 1 8.57 3.636a5.588 5.588 0 0 1 2.696.107 4.99 4.99 0 0 1 1.98 1.142l1.688-1.655c.296-.295.607-.58.894-.885A8.986 8.986 0 0 0 12.87.55 9.449 9.449 0 0 0 6.684.492Z"/><path fill="#EA4335" d="M6.684.493a9.48 9.48 0 0 1 6.186.053 8.956 8.956 0 0 1 2.958 1.794c-.287.305-.598.59-.894.886L13.246 4.88a5.025 5.025 0 0 0-1.98-1.141 5.53 5.53 0 0 0-2.696-.107c-1.037.218-2 .75-2.745 1.495a5.566 5.566 0 0 0-1.333 2.124C3.49 6.486 2.488 5.727 1.48 4.962c1.062-2.08 2.968-3.72 5.204-4.47Z"/><path fill="#FBBC05" d="M.684 7.217c.163-.784.43-1.548.8-2.264 1.002.764 2.004 1.524 3.012 2.288a5.324 5.324 0 0 0 0 3.503c-1.003.764-2.005 1.528-3.007 2.288a8.792 8.792 0 0 1-.805-5.815Z"/><path fill="#4285F4" d="M9.685 7.305h8.64a10.434 10.434 0 0 1-.232 4.78c-.42 1.417-1.215 2.732-2.326 3.734l-2.918-2.22a4.232 4.232 0 0 0 1.837-2.782H9.68c.005-1.17.005-2.342.005-3.512Z"/><path fill="#34A853" d="M1.48 13.034c1.003-.76 2.005-1.524 3.007-2.288a5.604 5.604 0 0 0 2.103 2.762 5.53 5.53 0 0 0 2.044.866c.721.145 1.467.126 2.192.005a5.321 5.321 0 0 0 2.025-.784l2.917 2.22c-1.051.954-2.37 1.602-3.762 1.917-1.54.343-3.17.353-4.7-.049a9.145 9.145 0 0 1-3.337-1.65 9.098 9.098 0 0 1-2.489-2.999Z"/></svg>
